X: 1
T: CATCH CLUB -- JIG
B: Ryan's Mammoth Collection of Fiddle Tunes
R: jig
M: 6/8
L: 1/8
Z: Contributed 20010704233212 by John Chambers jmchambers:rcn.net
K: D
uA \
| dDD DEF | Agf ede | dDD GAB | efe cBA \
| dDD DEF | Agf ede | fdB AFG | Bdd d2 :|
|: vf/g/ \
| agf agf | {f}edd d2g/a/ | bag bag | {g}fee e2f/g/ \
| agf bag | fed cBA | Adc B"4"ed | cfe d2 :|
